icons/delete.svg

<svg width="24" height="24" viewBox="0 0 24 24" fill="none" xmlns="http://www.w3.org/2000/svg">
<path fill-rule="evenodd" clip-rule="evenodd" d="M9.25 4.19744C9.25 3.71165 9.71421 3.24744 10.2 3.24744H13.9C14.3858 3.24744 14.85 3.71165 14.85 4.19744V4.74744H9.25V4.19744ZM7.75 4.74744V4.19744C7.75 2.88322 8.88579 1.74744 10.2 1.74744H13.9C15.2142 1.74744 16.35 2.88322 16.35 4.19744V4.74744H18.75H20C20.4142 4.74744 20.75 5.08322 20.75 5.49744C20.75 5.91165 20.4142 6.24744 20 6.24744H18.75V18.4974C18.75 20.6278 16.9979 22.2474 15 22.2474H9.11975C6.86152 22.3609 5.25 20.5804 5.25 18.4974V6.24744H4C3.58579 6.24744 3.25 5.91165 3.25 5.49744C3.25 5.08322 3.58579 4.74744 4 4.74744H5.25H7.75ZM6.75 6.24744H17.25V18.4974C17.25 19.7671 16.2021 20.7474 15 20.7474H9.07918L9.0584 20.7486C7.72808 20.8225 6.75 19.8078 6.75 18.4974V6.24744ZM10 8.84744C10.4142 8.84744 10.75 9.18323 10.75 9.59744V17.5974C10.75 18.0117 10.4142 18.3474 10 18.3474C9.58579 18.3474 9.25 18.0117 9.25 17.5974V9.59744C9.25 9.18323 9.58579 8.84744 10 8.84744ZM14.75 9.59744C14.75 9.18323 14.4142 8.84744 14 8.84744C13.5858 8.84744 13.25 9.18323 13.25 9.59744V17.5974C13.25 18.0117 13.5858 18.3474 14 18.3474C14.4142 18.3474 14.75 18.0117 14.75 17.5974V9.59744Z" fill="black"/>
</svg>

<svg xmlns="http://www.w3.org/2000/svg" fill="none" viewBox="0 0 24 24">
  <path fill="#000" fill-rule="evenodd" d="M9.25 4.197c0-.485.464-.95.95-.95h3.7c.486 0 .95.465.95.95v.55h-5.6v-.55Zm-1.5.55v-.55c0-1.314 1.136-2.45 2.45-2.45h3.7c1.314 0 2.45 1.136 2.45 2.45v.55H20a.75.75 0 0 1 0 1.5h-1.25v12.25c0 2.13-1.752 3.75-3.75 3.75H9.12c-2.258.114-3.87-1.667-3.87-3.75V6.247H4a.75.75 0 0 1 0-1.5h3.75Zm-1 1.5h10.5v12.25c0 1.27-1.048 2.25-2.25 2.25H9.08l-.022.002c-1.33.074-2.308-.941-2.308-2.252V6.247Zm3.25 2.6a.75.75 0 0 1 .75.75v8a.75.75 0 1 1-1.5 0v-8a.75.75 0 0 1 .75-.75Zm4.75.75a.75.75 0 0 0-1.5 0v8a.75.75 0 1 0 1.5 0v-8Z" clip-rule="evenodd"/>
</svg>
